X: 11
T: Ratling Morgan
%C: Mr. Gray
%R: reel
B: Mr. Gray "24 Country Dances for the Year 1803" p.6 #1
S: http://imslp.org/wiki/24_Country_Dances_for_the_Year_1803_(Various)  2013-12-2
Z: 2013 John Chambers <jc:trillian.mit.edu>
M: 2/4
L: 1/16
K: Bb
|:\
B2dB f2(dB) | edcB AcAF |\
GBFB GBFe | edBA B2B2 :|
|:\
c2AF c2AF | ecBA B/c/d/e/ f2 |\
g2eB fabB | ecBA B2B2 :|
% - - - - - - - - - - - - - - - - - - - - - - - - -
%%begintext align
%% 1st & 2d Cu: set hands across back again
%% lead down the middle, up, again, right
%% & left :|:
%%endtext

%%sep 1 1 500
%%sep 1 1 500
